icons/tag-16.svg

<svg width="16" height="16" viewBox="0 0 16 16" xmlns="http://www.w3.org/2000/svg">
  <path fill-rule="evenodd" clip-rule="evenodd" d="M2.5 7.775V2.75C2.5 2.6837 2.52634 2.62011 2.57322 2.57322C2.62011 2.52634 2.6837 2.5 2.75 2.5H7.775C7.80785 2.49994 7.84039 2.50636 7.87077 2.51888C7.90114 2.53141 7.92874 2.5498 7.952 2.573L14.202 8.823C14.2253 8.84622 14.2438 8.87381 14.2564 8.90418C14.269 8.93456 14.2754 8.96712 14.2754 9C14.2754 9.03288 14.269 9.06544 14.2564 9.09582C14.2438 9.12619 14.2253 9.15378 14.202 9.177L9.177 14.202C9.15378 14.2253 9.12619 14.2438 9.09582 14.2564C9.06544 14.269 9.03288 14.2754 9 14.2754C8.96712 14.2754 8.93456 14.269 8.90418 14.2564C8.87381 14.2438 8.84622 14.2253 8.823 14.202L2.573 7.952C2.5498 7.92874 2.53141 7.90114 2.51888 7.87077C2.50636 7.84039 2.49994 7.80785 2.5 7.775ZM1 7.775V2.75C1 1.784 1.784 1 2.75 1H7.775C8.239 1 8.685 1.184 9.013 1.513L15.263 7.763C15.5909 8.09115 15.7751 8.53609 15.7751 9C15.7751 9.46391 15.5909 9.90885 15.263 10.237L10.237 15.263C9.90885 15.5909 9.46391 15.7751 9 15.7751C8.53609 15.7751 8.09115 15.5909 7.763 15.263L1.513 9.013C1.35035 8.85047 1.22133 8.65747 1.1333 8.44505C1.04528 8.23263 0.999983 8.00494 1 7.775ZM6 5C5.73478 5 5.48043 5.10536 5.29289 5.29289C5.10536 5.48043 5 5.73478 5 6C5 6.26522 5.10536 6.51957 5.29289 6.70711C5.48043 6.89464 5.73478 7 6 7C6.26522 7 6.51957 6.89464 6.70711 6.70711C6.89464 6.51957 7 6.26522 7 6C7 5.73478 6.89464 5.48043 6.70711 5.29289C6.51957 5.10536 6.26522 5 6 5Z"/>
</svg>

<svg xmlns="http://www.w3.org/2000/svg" width="16" height="16" viewBox="0 0 16 16"><path fill-rule="evenodd" d="M2.5 7.775V2.75a.25.25 0 01.25-.25h5.025a.25.25 0 01.177.073l6.25 6.25a.25.25 0 010 .354l-5.025 5.025a.25.25 0 01-.354 0l-6.25-6.25a.25.25 0 01-.073-.177zm-1.5 0V2.75C1 1.784 1.784 1 2.75 1h5.025c.464 0 .91.184 1.238.513l6.25 6.25a1.75 1.75 0 010 2.474l-5.026 5.026a1.75 1.75 0 01-2.474 0l-6.25-6.25A1.75 1.75 0 011 7.775zM6 5a1 1 0 100 2 1 1 0 000-2z"/></svg>
